src/blocks/card/images/logo-text.svg

<svg width = "54" height = "14" viewBox = "0 0 54 14" fill = "none" xmlns = "http://www.w3.org/2000/svg">
<path d = "M10.335 0.368008C10.5567 0.368008 10.7375 0.443841 10.8775 0.595508C11.0292 0.735508 11.105 0.916341 11.105 1.13801C11.105 1.34801 11.0292 1.52884 10.8775 1.68051C10.7375 1.83217 10.5567 1.90801 10.335 1.90801H6.5725V12.408C6.5725 12.6297 6.49667 12.8163 6.345 12.968C6.205 13.108 6.02417 13.178 5.8025 13.178C5.5925 13.178 5.41167 13.108 5.26 12.968C5.10833 12.8163 5.0325 12.6297 5.0325 12.408V1.90801H1.27C1.06 1.90801 0.879167 1.83217 0.7275 1.68051C0.575833 1.52884 0.5 1.34801 0.5 1.13801C0.5 0.916341 0.575833 0.735508 0.7275 0.595508C0.879167 0.443841 1.06 0.368008 1.27 0.368008H10.335Z" fill = "#1F2041"/>
<path d = "M16.9076 0.368008C17.7943 0.368008 18.6285 0.537175 19.4101 0.875508C20.2034 1.21384 20.8918 1.67467 21.4751 2.25801C22.0701 2.84134 22.5368 3.52967 22.8751 4.32301C23.2134 5.10467 23.3826 5.93884 23.3826 6.82551C23.3826 7.86384 23.1609 8.82051 22.7176 9.69551C22.2743 10.5705 21.6735 11.3055 20.9151 11.9005C20.9151 11.9005 20.9035 11.9122 20.8801 11.9355C20.3201 12.3555 19.7076 12.688 19.0426 12.933C18.3776 13.1663 17.6659 13.283 16.9076 13.283C16.0209 13.283 15.1868 13.1138 14.4051 12.7755C13.6234 12.4372 12.9351 11.9763 12.3401 11.393C11.7568 10.8097 11.2959 10.1272 10.9576 9.34551C10.6193 8.56384 10.4501 7.72384 10.4501 6.82551C10.4501 5.84551 10.6484 4.94134 11.0451 4.11301C11.4418 3.27301 11.9843 2.55551 12.6726 1.96051L12.7426 1.89051C12.7543 1.89051 12.7718 1.87884 12.7951 1.85551C13.3551 1.38884 13.9851 1.02717 14.6851 0.770508C15.3851 0.502175 16.1259 0.368008 16.9076 0.368008ZM16.9076 11.743C17.3509 11.743 17.771 11.6905 18.1676 11.5855C18.576 11.4688 18.9609 11.3113 19.3226 11.113L13.1801 3.64051C12.8068 4.07217 12.5151 4.56217 12.3051 5.11051C12.0951 5.64717 11.9901 6.21884 11.9901 6.82551C11.9901 7.50217 12.1185 8.13801 12.3751 8.73301C12.6318 9.32801 12.9818 9.85301 13.4251 10.308C13.8801 10.7513 14.4051 11.1013 15.0001 11.358C15.5951 11.6147 16.2309 11.743 16.9076 11.743ZM20.5301 10.1505C20.9384 9.70717 21.2535 9.20551 21.4751 8.64551C21.7085 8.07384 21.8251 7.46718 21.8251 6.82551C21.8251 6.14884 21.6968 5.51301 21.4401 4.91801C21.1834 4.32301 20.8276 3.80384 20.3726 3.36051C19.9293 2.90551 19.4101 2.54967 18.8151 2.29301C18.2201 2.03634 17.5843 1.90801 16.9076 1.90801C16.4409 1.90801 15.9918 1.97217 15.5601 2.10051C15.1284 2.21717 14.7259 2.39217 14.3526 2.62551L20.5301 10.1505Z" fill = "#1F2041"/>
<path d = "M30.351 7.63051C30.1177 7.63051 29.9194 7.53717 29.756 7.35051L25.2585 1.57551C25.1302 1.41218 25.0777 1.23134 25.101 1.03301C25.1244 0.823008 25.2177 0.653842 25.381 0.525508C25.5444 0.397175 25.7252 0.350508 25.9235 0.385508C26.1335 0.408841 26.3027 0.502174 26.431 0.665508L30.351 5.67051L34.1835 0.753008C34.3119 0.589674 34.4752 0.496341 34.6735 0.473008C34.8835 0.449675 35.0702 0.502175 35.2335 0.630508C35.3969 0.758841 35.4902 0.928008 35.5135 1.13801C35.5369 1.33634 35.4844 1.51717 35.356 1.68051L30.946 7.35051C30.7944 7.53717 30.596 7.63051 30.351 7.63051ZM35.2685 13.2655C35.2219 13.2655 35.146 13.2597 35.041 13.248C34.9477 13.2363 34.8369 13.2072 34.7085 13.1605C34.5802 13.1022 34.4402 13.0263 34.2885 12.933C34.1485 12.828 34.0085 12.688 33.8685 12.513L30.351 7.98051L26.5185 12.9155C26.3902 13.0788 26.221 13.1722 26.011 13.1955C25.8127 13.2188 25.6319 13.1663 25.4685 13.038C25.3052 12.9097 25.2119 12.7463 25.1885 12.548C25.1652 12.338 25.2177 12.1513 25.346 11.988L29.756 6.31801C29.896 6.13134 30.0885 6.03801 30.3335 6.03801C30.5902 6.03801 30.7944 6.13134 30.946 6.31801L35.041 11.568C35.0994 11.6497 35.1519 11.7022 35.1985 11.7255C35.2452 11.7488 35.2802 11.7663 35.3035 11.778C35.5019 11.778 35.6652 11.848 35.7935 11.988C35.9335 12.1163 36.0094 12.2797 36.021 12.478C36.0444 12.688 35.986 12.8688 35.846 13.0205C35.706 13.1722 35.531 13.2538 35.321 13.2655H35.2685Z" fill = "#1F2041"/>
<path d = "M39.7343 13.2655C39.5126 13.2655 39.326 13.1897 39.1743 13.038C39.0226 12.8863 38.9468 12.6997 38.9468 12.478V1.10301C38.9468 0.893008 39.0226 0.712175 39.1743 0.560508C39.326 0.408841 39.5126 0.333008 39.7343 0.333008C39.9443 0.333008 40.1251 0.408841 40.2768 0.560508C40.4285 0.712175 40.5043 0.893008 40.5043 1.10301V12.478C40.5043 12.6997 40.4285 12.8863 40.2768 13.038C40.1251 13.1897 39.9443 13.2655 39.7343 13.2655Z" fill = "#1F2041"/>
<path d = "M52.9377 13.2305C52.681 13.2305 52.4827 13.1313 52.3427 12.933L45.0452 3.34301V12.478C45.0452 12.688 44.9693 12.8688 44.8177 13.0205C44.6777 13.1605 44.5027 13.2305 44.2927 13.2305C44.0943 13.2305 43.9193 13.1605 43.7677 13.0205C43.616 12.8688 43.5402 12.688 43.5402 12.478V1.12051C43.5402 0.957175 43.5868 0.811342 43.6802 0.683009C43.7735 0.554675 43.9018 0.467174 44.0652 0.420508C44.2168 0.362174 44.3685 0.356341 44.5202 0.403008C44.6718 0.449675 44.8002 0.537175 44.9052 0.665508L52.1852 10.273V1.12051C52.1852 0.922174 52.2552 0.747174 52.3952 0.595508C52.5468 0.443841 52.7277 0.368008 52.9377 0.368008C53.1477 0.368008 53.3227 0.443841 53.4627 0.595508C53.6143 0.747174 53.6902 0.922174 53.6902 1.12051V12.478C53.6902 12.6413 53.6435 12.7872 53.5502 12.9155C53.4568 13.0438 53.3343 13.1372 53.1827 13.1955C53.066 13.2188 52.9843 13.2305 52.9377 13.2305Z" fill = "#1F2041"/>
</svg>

<svg width="54" height="14" fill="none" xmlns="http://www.w3.org/2000/svg"><path d="M10.335.368c.222 0 .402.076.542.228.152.14.228.32.228.542a.74.74 0 0 1-.228.543.705.705 0 0 1-.542.227H6.572v10.5a.761.761 0 0 1-.227.56c-.14.14-.32.21-.542.21-.21 0-.391-.07-.543-.21a.761.761 0 0 1-.228-.56v-10.5H1.27a.74.74 0 0 1-.542-.227.74.74 0 0 1-.228-.543C.5.916.576.736.728.596A.74.74 0 0 1 1.27.368h9.065ZM16.908.368c.886 0 1.72.17 2.502.508.793.338 1.482.799 2.065 1.382a6.342 6.342 0 0 1 1.4 2.065c.338.782.508 1.616.508 2.503a6.259 6.259 0 0 1-.665 2.87 6.498 6.498 0 0 1-1.803 2.204l-.035.035c-.56.42-1.172.753-1.837.998a6.404 6.404 0 0 1-2.135.35c-.887 0-1.721-.17-2.503-.508a6.753 6.753 0 0 1-2.065-1.382 6.536 6.536 0 0 1-1.382-2.047 6.276 6.276 0 0 1-.508-2.52c0-.98.198-1.885.595-2.713.397-.84.94-1.557 1.628-2.152l.07-.07c.011 0 .029-.012.052-.035A6.333 6.333 0 0 1 14.685.77c.7-.269 1.44-.403 2.223-.403Zm0 11.375c.443 0 .863-.053 1.26-.158a5.586 5.586 0 0 0 1.155-.472L13.18 3.641a4.915 4.915 0 0 0-.875 1.47 4.664 4.664 0 0 0-.315 1.715c0 .676.128 1.312.385 1.907s.607 1.12 1.05 1.575c.455.443.98.793 1.575 1.05s1.23.385 1.908.385Zm3.622-1.593c.408-.443.723-.944.945-1.504.233-.572.35-1.179.35-1.82a4.814 4.814 0 0 0-1.453-3.465 4.813 4.813 0 0 0-3.464-1.453c-.467 0-.916.064-1.348.193a4.46 4.46 0 0 0-1.207.525l6.177 7.524ZM30.351 7.63a.763.763 0 0 1-.595-.28l-4.497-5.774a.714.714 0 0 1-.158-.543.722.722 0 0 1 .28-.507.658.658 0 0 1 .543-.14c.21.023.379.116.507.28l3.92 5.005L34.184.753a.709.709 0 0 1 .49-.28.74.74 0 0 1 .56.158.721.721 0 0 1 .28.507.713.713 0 0 1-.158.543l-4.41 5.67a.73.73 0 0 1-.595.28Zm4.918 5.635a1.572 1.572 0 0 1-.56-.105 3.865 3.865 0 0 1-.42-.227 2.376 2.376 0 0 1-.42-.42L30.35 7.981l-3.832 4.934a.721.721 0 0 1-.508.28.714.714 0 0 1-.543-.157.709.709 0 0 1-.28-.49.741.741 0 0 1 .158-.56l4.41-5.67a.682.682 0 0 1 .578-.28c.256 0 .46.093.612.28l4.095 5.25c.058.082.11.134.158.158l.105.052c.198 0 .361.07.49.21.14.128.215.292.227.49a.657.657 0 0 1-.175.543.744.744 0 0 1-.525.244h-.052ZM39.734 13.265a.761.761 0 0 1-.56-.227.761.761 0 0 1-.227-.56V1.103c0-.21.076-.39.227-.542a.761.761 0 0 1 .56-.228c.21 0 .391.076.543.228a.74.74 0 0 1 .227.542v11.375a.761.761 0 0 1-.227.56.74.74 0 0 1-.543.227ZM52.938 13.23a.685.685 0 0 1-.595-.297l-7.298-9.59v9.135a.74.74 0 0 1-.227.543.712.712 0 0 1-.525.21.75.75 0 0 1-.753-.753V1.121c0-.164.047-.31.14-.438a.696.696 0 0 1 .385-.262.678.678 0 0 1 .455-.018.79.79 0 0 1 .385.263l7.28 9.607V1.121c0-.199.07-.374.21-.525a.74.74 0 0 1 .543-.228c.21 0 .385.076.525.228a.721.721 0 0 1 .227.525v11.357c0 .163-.046.31-.14.438a.8.8 0 0 1-.367.28 1.48 1.48 0 0 1-.245.034Z" fill="#1F2041"/></svg>
